X:999
T:Reel 999
M:4/4
K:Gmaj
L:1/8
dc|BAGA  (3Bcd ec|BGBA c2Ac|BAGB A2ed||BAAB A2:||2AGAB c2ef|gefd ecdB| (3cBA dB c2BA|Ggfe ecBc|ABAB A2a2|ggfe ecBd|AGBG A2Bc| (3BcB gB cBBd| (3efg dB c2|cd|cBAB G2AG|
